X: 4
T: The Bucks Of Oranmore
R: reel
M: 4/4
L: 1/8
K: Dmaj
|A2FA A2dB|BAFA BGDG|A2FA AAB/2c/2d|e/2f/2gfd ecdB|AFFF AFDF|ADFA BAFA|DEFD AAAB|defd ecdB|||ADDD ADBD|ADDD BGEG|ADDD A2B/2c/2d|e/2f/2gfd ecdB|ADDD ADBD|ADDD BGEG|DEFD AAAB|defd efgb|||a2fd efdf|a2fd edA/2B/2d|fadf eAdf|f/2f/2efd edB/2c/2d|fadf eAdf|aafd edB/2c/2d|faa/2a/2a bgaf|gefd efde|||efdf efde|f2df edB/2c/2d|efdf efde|gefd edBd|fAdf eAde|fAdf edB/2c/2d|faaa bfaf|gefd efdB|||Adfd edfd|Adfd edB/2c/2d|Adfd edef|fefd edB/2c/2d|Adfd edfd|Adfd edB/2c/2d|faaa bfaf|gefd efdB||


Tune 2	Setting 12344

